X: 1524
T: the Humors of Newcastle
T: sugra .caislean-nua.da.
R: reel
O: Dillon
B: O'Neill's 1850 "Music of Ireland" #1524
Z: transcribed by John B. Walsh, walsh@math.ubc.ca 8/23/96
Z: Compacted via repeats and multiple endings [JC]
M: C|
L: 1/8
K: D
|: DFEF D2(dB) | A2FD EA,~A,2 | DFEF D2(dB) | AFDF T(ED)D2 :: d2(fd) adfd |
| A2 ((3cBA) eA ((3cBA) |1 d2(fd) adfd | ((3fga) eg fBB2 :|2 dfeg ((3fga) ec | dBAG T(FD)D2 |]
